X:34
T:no name
R:highland
Z:id:hn-hf-34
M:C|
L:1/8
K:A
~A3B c2cB | A2af ecBc | ~A3B c2 (3cde |1 afec ~B3c :|2 afec B3b ||
|: c'a~a2 bafg | abaf efab |1 c'a~a2 bafg | (3agf ec B3b :|2 c'aba faef | afec B3c ||

